;Sliced by ideaMaker 4.3.1.6452, 2023-07-18 16:41:58 UTC-0500
;Dimension: 240.000 9999.000 180.000 0.600
;Plate Shape: 0
;Origin Center: 0
;Belt Printer: 1
;Belt Base Y: 5070.805
;Belt Base Z: 0.000
;Belt Offset Y: 0.000
;Belt Offset Z: 3585.600
;Belt Gantry Angle: 45
;Belt Remove Z: 0.679
;Belt Repetition: 1
;Extruder Offset #1: 25.000 0.000
;Filament Diameter #1: 1.750
;Filament Diameter #2: 1.750
;Filament Compensation #1: 100.00
;Filament Compensation #2: 90.00
;Filament Density #1: 1240.00
;Filament Density #2: 1240.00
;Filament Type #1: PLA
;Filament Type #2: 
;Filament Name #1: [Raise3D] PLA 1.75mm - V2 Hot End
;Filament Name #2: 
;Firmware: Marlin
;Bounding Box: 99.522 140.478 0.000 38.900 0.480 39.079
;Model Gap: 0.000
M221 T0 S100.00
M140 S70.00
M104 T0 S200.00
M109 T0 S200.00
T0
M190 S70.00
G90               ; Set to Absolute Positioning
M82               ; Set extruder to absolute mode
G21               ; Metric values
G28
G92 E0   ; Set all axis to 0
G1 Y.2
G1 X200 E20 F500
G1 Z.3
G1 X0 E40
G92 E0 Z0
M117 ENDER_3_BELT
;end of Start GCode
;TOTAL_NUM: 1
;PRINTING_TIME: 0
;REMAINING_TIME: 1718
;LAYER:0
;Z:0.960
;HEIGHT:0.960
;HEIGHT-BELT:0.679
;BELT-FIRST-Z:0.960
M106 S255
;PRINTING: conveyor belt printer calibration cube-45.stl
;PRINTING_ID: 0
G1 F240 E-0.3000
G0 F3600 X110.775 Y0.300
G0 F600 Z0.960
;TYPE:WALL-OUTER
;WIDTH:0.600
;HEIGHT:0.960
;HEIGHT-BELT:0.679
G1 F1500 E0.0000
G1 F599 X140.178 Y0.300 E3.5206
G1 X140.178 Y0.618 E3.5587
G1 X110.775 Y0.618 E7.0793
G1 X110.775 Y0.500 E7.0934
G0 F599 X110.775 Y0.300
;PRINTING_TIME: 8
;REMAINING_TIME: 1710
;LAYER:1
;Z:1.639
;HEIGHT:0.679
;HEIGHT-BELT:0.480
;PRINTING: conveyor belt printer calibration cube-45.stl
;PRINTING_ID: 0
G1 F240 E6.7934
G0 F600 Z1.639
G0 F3600 X110.775 Y0.300
;TYPE:WALL-OUTER
;WIDTH:0.600
G1 F1500 E7.0934
G1 F599 X140.178 Y0.300 E10.6140
G1 X140.178 Y1.098 E10.7096
G1 X110.775 Y1.098 E14.2302
G1 X110.775 Y0.500 E14.3018
G0 F599 X110.775 Y0.300
G0 F3600 X111.631 Y0.798
;TYPE:SOLID-FILL
;WIDTH:0.600
G1 F600 X112.155 Y0.698 E14.3354
G1 X113.003 Y0.698 E14.3690
G1 X113.852 Y0.698 E14.4025
G1 X114.700 Y0.698 E14.4360
G1 X115.549 Y0.698 E14.4696
G1 X116.397 Y0.698 E14.5031
G1 X117.246 Y0.698 E14.5366
G1 X118.094 Y0.698 E14.5701
G1 X118.943 Y0.698 E14.6037
G1 X119.791 Y0.698 E14.6372
G1 X120.640 Y0.698 E14.6707
G1 X121.488 Y0.698 E14.7042
G1 X122.337 Y0.698 E14.7378
G1 X123.186 Y0.698 E14.7713
G1 X124.034 Y0.698 E14.8048
G1 X124.883 Y0.698 E14.8384
G1 X125.731 Y0.698 E14.8719
G1 X126.580 Y0.698 E14.9054
G1 X127.428 Y0.698 E14.9389
G1 X128.277 Y0.698 E14.9725
G1 X129.125 Y0.698 E15.0060
G1 X129.974 Y0.698 E15.0395
G1 X130.822 Y0.698 E15.0730
G1 X131.671 Y0.698 E15.1066
G1 X132.519 Y0.698 E15.1401
G1 X133.368 Y0.698 E15.1736
G1 X134.216 Y0.698 E15.2071
G1 X135.065 Y0.698 E15.2407
G1 X135.913 Y0.698 E15.2742
G1 X136.762 Y0.698 E15.3077
G1 X137.611 Y0.698 E15.3413
G1 X138.459 Y0.698 E15.3748
G1 X139.308 Y0.698 E15.4083
G1 X139.831 Y0.599 E15.4721
;PRINTING_TIME: 17
;REMAINING_TIME: 1701
;LAYER:2
;Z:2.318
;HEIGHT:0.679
;HEIGHT-BELT:0.480
;PRINTING: conveyor belt printer calibration cube-45.stl
;PRINTING_ID: 0
G1 F240 E15.1721
G0 F600 Z2.318
G0 F3600 X110.775 Y0.300
;TYPE:WALL-OUTER
;WIDTH:0.600
G1 F1500 E15.4721
G1 F599 X140.178 Y0.300 E18.9927
G1 X140.178 Y1.578 E19.1457
G1 X110.775 Y1.578 E22.6663
G1 X110.775 Y0.500 E22.7954
G0 F599 X110.775 Y0.300
G0 F3600 X111.075 Y0.900
;TYPE:SOLID-FILL
;WIDTH:0.600
G1 F600 X139.878 Y0.900 E26.2442
;PRINTING_TIME: 27
;REMAINING_TIME: 1691
;LAYER:3
;Z:2.997
;HEIGHT:0.679
;HEIGHT-BELT:0.480
;PRINTING: conveyor belt printer calibration cube-45.stl
;PRINTING_ID: 0
G1 F240 E25.9442
G0 F600 Z2.997
G0 F3600 X110.775 Y0.300
;TYPE:WALL-OUTER
;WIDTH:0.600
G1 F1500 E26.2442
G1 F599 X140.178 Y0.300 E29.7648
G1 X140.178 Y2.058 E29.9753
G1 X110.775 Y2.058 E33.4959
G1 X110.775 Y0.500 E33.6824
G0 F599 X110.775 Y0.300
G0 F3600 X111.375 Y0.900
;TYPE:WALL-INNER
;WIDTH:0.600
G1 F637 X139.578 Y0.900 E37.0594
G1 X139.578 Y1.458 E37.1262
G1 X111.375 Y1.458 E40.5031
G1 X111.375 Y1.100 E40.5460
G0 F637 X111.375 Y0.900
;PRINTING_TIME: 40
;REMAINING_TIME: 1679
;LAYER:4
;Z:3.676
;HEIGHT:0.679
;HEIGHT-BELT:0.480
;PRINTING: conveyor belt printer calibration cube-45.stl
;PRINTING_ID: 0
G1 F240 E40.2460
G0 F600 Z3.676
G0 F3600 X110.775 Y0.300
;TYPE:WALL-OUTER
;WIDTH:0.600
G1 F1500 E40.5460
G1 F599 X140.178 Y0.300 E44.0666
G1 X140.178 Y2.538 E44.3346
G1 X110.775 Y2.538 E47.8552
G1 X110.775 Y0.500 E48.0992
G0 F599 X110.775 Y0.300
G0 F3600 X111.375 Y0.900
;TYPE:WALL-INNER
;WIDTH:0.600
G1 F750 X139.578 Y0.900 E51.4761
G1 X139.578 Y1.938 E51.6004
G1 X111.375 Y1.938 E54.9773
G1 X111.375 Y1.100 E55.0777
G0 F750 X111.375 Y0.900
G0 F3600 X112.078 Y1.199
;TYPE:SOLID-FILL
;WIDTH:0.600
G1 F852 X112.081 Y1.621 E55.1461
G1 X113.132 Y1.418 E55.2203
G1 X113.980 Y1.418 E55.2944
G1 X114.829 Y1.418 E55.3686
G1 X115.677 Y1.418 E55.4427
G1 X116.526 Y1.418 E55.5169
G1 X117.374 Y1.418 E55.5910
G1 X118.223 Y1.418 E55.6653
G1 X119.071 Y1.418 E55.7394
G1 X119.920 Y1.418 E55.8136
G1 X120.768 Y1.418 E55.8877
G1 X121.617 Y1.418 E55.9619
G1 X122.465 Y1.418 E56.0360
G1 X123.314 Y1.418 E56.1103
G1 X124.162 Y1.418 E56.1844
G1 X125.011 Y1.418 E56.2586
G1 X125.859 Y1.418 E56.3327
G1 X126.708 Y1.418 E56.4069
G1 X127.557 Y1.418 E56.4811
G1 X128.405 Y1.418 E56.5552
G1 X129.254 Y1.418 E56.6295
G1 X130.102 Y1.418 E56.7036
G1 X130.951 Y1.418 E56.7778
G1 X131.799 Y1.418 E56.8519
G1 X132.648 Y1.418 E56.9261
G1 X133.496 Y1.418 E57.0002
G1 X134.345 Y1.418 E57.0744
G1 X135.193 Y1.418 E57.1486
G1 X136.042 Y1.418 E57.2228
G1 X136.890 Y1.418 E57.2969
G1 X137.739 Y1.418 E57.3711
G1 X138.587 Y1.418 E57.4452
G1 X139.231 Y1.199 E57.5267
;PRINTING_TIME: 53
;REMAINING_TIME: 1665
;LAYER:5
;Z:4.355
;HEIGHT:0.679
;HEIGHT-BELT:0.480
;PRINTING: conveyor belt printer calibration cube-45.stl
;PRINTING_ID: 0
G1 F240 E57.2267
G0 F600 Z4.355
G0 F3600 X110.775 Y0.300
;TYPE:WALL-OUTER
;WIDTH:0.600
G1 F1500 E57.5267
G1 F599 X140.178 Y0.300 E61.0473
G1 X140.178 Y3.018 E61.3727
G1 X110.775 Y3.018 E64.8933
G1 X110.775 Y0.500 E65.1948
G0 F599 X110.775 Y0.300
G0 F3600 X111.375 Y0.900
;TYPE:WALL-INNER
;WIDTH:0.600
G1 F956 X139.578 Y0.900 E68.5718
G1 X139.578 Y2.418 E68.7535
G1 X111.375 Y2.418 E72.1305
G1 X111.375 Y1.100 E72.2883
G0 F956 X111.375 Y0.900
G0 F3600 X111.975 Y1.500
G1 F956 X138.978 Y1.500 E75.5215
G1 X138.978 Y1.818 E75.5596
G1 X111.975 Y1.818 E78.7928
G1 X111.975 Y1.700 E78.8070
G0 F956 X111.975 Y1.500
;PRINTING_TIME: 68
;REMAINING_TIME: 1651
;LAYER:6
;Z:5.034
;HEIGHT:0.679
;HEIGHT-BELT:0.480
;PRINTING: conveyor belt printer calibration cube-45.stl
;PRINTING_ID: 0
G1 F240 E78.5070
G0 F600 Z5.034
G0 F3600 X110.775 Y0.300
;TYPE:WALL-OUTER
;WIDTH:0.600
G1 F1500 E78.8070
G1 F599 X140.178 Y0.300 E82.3276
G1 X140.178 Y3.498 E82.7105
G1 X110.775 Y3.498 E86.2311
G1 X110.775 Y0.500 E86.5901
G0 F599 X110.775 Y0.300
G0 F3600 X111.375 Y0.900
;TYPE:WALL-INNER
;WIDTH:0.600
G1 F1032 X139.578 Y0.900 E89.9670
G1 X139.578 Y2.898 E90.2062
G1 X111.375 Y2.898 E93.5832
G1 X111.375 Y1.100 E93.7984
G0 F1032 X111.375 Y0.900
G0 F3600 X111.975 Y1.500
G1 F1032 X138.978 Y1.500 E97.0317
G1 X138.978 Y2.298 E97.1272
G1 X111.975 Y2.298 E100.3605
G1 X111.975 Y1.700 E100.4321
G0 F1032 X111.975 Y1.500
G0 F3600 X112.533 Y1.800
;TYPE:SOLID-FILL
;WIDTH:0.600
G1 F1200 X113.055 Y1.898 E100.4654
G1 X113.904 Y1.898 E100.4987
G1 X114.752 Y1.898 E100.5319
G1 X115.601 Y1.898 E100.5653
G1 X116.449 Y1.898 E100.5985
G1 X117.298 Y1.898 E100.6318
G1 X118.146 Y1.898 E100.6650
G1 X118.995 Y1.898 E100.6984
G1 X119.843 Y1.898 E100.7316
G1 X120.692 Y1.898 E100.7649
G1 X121.541 Y1.898 E100.7981
G1 X122.389 Y1.898 E100.8313
G1 X123.238 Y1.898 E100.8645
G1 X124.086 Y1.898 E100.8977
G1 X124.935 Y1.898 E100.9309
G1 X125.783 Y1.898 E100.9641
G1 X126.632 Y1.898 E100.9973
G1 X127.480 Y1.898 E101.0304
G1 X128.329 Y1.898 E101.0638
G1 X129.177 Y1.898 E101.0970
G1 X130.026 Y1.898 E101.1304
G1 X130.874 Y1.898 E101.1635
G1 X131.723 Y1.898 E101.1969
G1 X132.571 Y1.898 E101.2301
G1 X133.420 Y1.898 E101.2635
G1 X134.268 Y1.898 E101.2966
G1 X135.117 Y1.898 E101.3300
G1 X135.966 Y1.898 E101.3632
G1 X136.814 Y1.898 E101.3964
G1 X137.663 Y1.898 E101.4296
G1 X138.186 Y1.997 E101.4933
;PRINTING_TIME: 83
;REMAINING_TIME: 1636
;LAYER:7
;Z:5.713
;HEIGHT:0.679
;HEIGHT-BELT:0.480
;PRINTING: conveyor belt printer calibration cube-45.stl
;PRINTING_ID: 0
G1 F240 E101.1933
G0 F600 Z5.713
G0 F3600 X110.775 Y0.300
;TYPE:WALL-OUTER
;WIDTH:0.600
G1 F1500 E101.4933
G1 F599 X140.178 Y0.300 E105.0139
G1 X140.178 Y3.978 E105.4543
G1 X110.775 Y3.978 E108.9749
G1 X110.775 Y0.500 E109.3914
G0 F599 X110.775 Y0.300
G0 F3600 X111.375 Y0.900
;TYPE:WALL-INNER
;WIDTH:0.600
G1 F1195 X139.578 Y0.900 E112.7683
G1 X139.578 Y3.378 E113.0650
G1 X111.375 Y3.378 E116.4419
G1 X111.375 Y1.100 E116.7147
G0 F1195 X111.375 Y0.900
G0 F3600 X111.975 Y1.500
G1 F1195 X138.978 Y1.500 E119.9479
G1 X138.978 Y2.778 E120.1010
G1 X111.975 Y2.778 E123.3342
G1 X111.975 Y1.700 E123.4633
G0 F1195 X111.975 Y1.500
G0 F3600 X112.497 Y2.478
;TYPE:SOLID-FILL
;WIDTH:0.600
G1 F1403 X113.260 Y2.138 E123.5781
G1 X114.109 Y2.138 E123.6930
G1 X114.957 Y2.138 E123.8079
G1 X115.806 Y2.138 E123.9228
G1 X116.654 Y2.138 E124.0377
G1 X117.503 Y2.138 E124.1526
G1 X118.351 Y2.138 E124.2675
G1 X119.200 Y2.138 E124.3823
G1 X120.048 Y2.138 E124.4972
G1 X120.897 Y2.138 E124.6121
G1 X121.745 Y2.138 E124.7270
G1 X122.594 Y2.138 E124.8419
G1 X123.443 Y2.138 E124.9568
G1 X124.291 Y2.138 E125.0715
G1 X125.140 Y2.138 E125.1864
G1 X125.988 Y2.138 E125.3011
G1 X126.837 Y2.138 E125.4160
G1 X127.685 Y2.138 E125.5307
G1 X128.534 Y2.138 E125.6456
G1 X129.382 Y2.138 E125.7605
G1 X130.231 Y2.138 E125.8754
G1 X131.079 Y2.138 E125.9903
G1 X131.928 Y2.138 E126.1051
G1 X132.776 Y2.138 E126.2201
G1 X133.625 Y2.138 E126.3349
G1 X134.473 Y2.138 E126.4498
G1 X135.322 Y2.138 E126.5647
G1 X136.170 Y2.138 E126.6796
G1 X137.019 Y2.138 E126.7945
G1 X137.867 Y2.138 E126.9094
G1 X138.631 Y1.799 E127.0095
;PRINTING_TIME: 97
;REMAINING_TIME: 1621
;LAYER:8
;Z:6.392
;HEIGHT:0.679
;HEIGHT-BELT:0.480
;PRINTING: conveyor belt printer calibration cube-45.stl
;PRINTING_ID: 0
G1 F240 E126.7095
G0 F600 Z6.392
G0 F3600 X110.775 Y0.300
;TYPE:WALL-OUTER
;WIDTH:0.600
G1 F1500 E127.0095
G1 F599 X140.178 Y0.300 E130.5301
G1 X140.178 Y4.458 E131.0279
G1 X110.775 Y4.458 E134.5485
G1 X110.775 Y0.500 E135.0225
G0 F599 X110.775 Y0.300
G0 F3600 X111.375 Y0.900
;TYPE:WALL-INNER
;WIDTH:0.600
G1 F1334 X139.578 Y0.900 E138.3994
G1 X139.578 Y3.858 E138.7536
G1 X111.375 Y3.858 E142.1305
G1 X111.375 Y1.100 E142.4607
G0 F1334 X111.375 Y0.900
G0 F3600 X111.975 Y1.500
G1 F1334 X138.978 Y1.500 E145.6940
G1 X138.978 Y3.258 E145.9045
G1 X111.975 Y3.258 E149.1377
G1 X111.975 Y1.700 E149.3243
G0 F1334 X111.975 Y1.500
G0 F3600 X112.575 Y2.100
G1 F1334 X138.378 Y2.100 E152.4138
G1 X138.378 Y2.658 E152.4806
G1 X112.575 Y2.658 E155.5702
G1 X112.575 Y2.300 E155.6131
G0 F1334 X112.575 Y2.100
;PRINTING_TIME: 113
;REMAINING_TIME: 1605
;LAYER:9
;Z:7.071
;HEIGHT:0.679
;HEIGHT-BELT:0.480
;PRINTING: conveyor belt printer calibration cube-45.stl
;PRINTING_ID: 0
G1 F240 E155.3131
G0 F600 Z7.071
G0 F3600 X110.775 Y0.300
;TYPE:WALL-OUTER
;WIDTH:0.600
G1 F1500 E155.6131
G1 F599 X140.178 Y0.300 E159.1337
G1 X140.178 Y4.938 E159.6890
G1 X110.775 Y4.938 E163.2096
G1 X110.775 Y0.500 E163.7410
G0 F599 X110.775 Y0.300
G0 F3600 X111.375 Y0.900
;TYPE:WALL-INNER
;WIDTH:0.600
G1 F1417 X139.578 Y0.900 E167.1180
G1 X139.578 Y4.338 E167.5296
G1 X111.375 Y4.338 E170.9065
G1 X111.375 Y1.100 E171.2942
G0 F1417 X111.375 Y0.900
G0 F3600 X111.975 Y1.500
G1 F1417 X138.978 Y1.500 E174.5275
G1 X138.978 Y3.738 E174.7955
G1 X111.975 Y3.738 E178.0287
G1 X111.975 Y1.700 E178.2727
G0 F1417 X111.975 Y1.500
G0 F3600 X112.575 Y2.100
G1 F1417 X138.378 Y2.100 E181.3623
G1 X138.378 Y3.138 E181.4866
G1 X112.575 Y3.138 E184.5761
G1 X112.575 Y2.300 E184.6765
G0 F1417 X112.575 Y2.100
G0 F3600 X113.132 Y2.399
;TYPE:SOLID-FILL
;WIDTH:0.600
G1 F1690 X113.775 Y2.618 E184.7505
G1 X114.624 Y2.618 E184.8245
G1 X115.472 Y2.618 E184.8985
G1 X116.321 Y2.618 E184.9725
G1 X117.169 Y2.618 E185.0465
G1 X118.018 Y2.618 E185.1205
G1 X118.866 Y2.618 E185.1945
G1 X119.715 Y2.618 E185.2685
G1 X120.563 Y2.618 E185.3425
G1 X121.412 Y2.618 E185.4165
G1 X122.260 Y2.618 E185.4904
G1 X123.109 Y2.618 E185.5645
G1 X123.957 Y2.618 E185.6384
G1 X124.806 Y2.618 E185.7125
G1 X125.654 Y2.618 E185.7864
G1 X126.503 Y2.618 E185.8605
G1 X127.351 Y2.618 E185.9344
G1 X128.200 Y2.618 E186.0085
G1 X129.049 Y2.618 E186.0825
G1 X129.897 Y2.618 E186.1565
G1 X130.746 Y2.618 E186.2305
G1 X131.594 Y2.618 E186.3044
G1 X132.443 Y2.618 E186.3785
G1 X133.291 Y2.618 E186.4524
G1 X134.140 Y2.618 E186.5265
G1 X134.988 Y2.618 E186.6004
G1 X135.837 Y2.618 E186.6745
G1 X136.685 Y2.618 E186.7484
G1 X137.534 Y2.618 E186.8225
G1 X138.077 Y2.737 E186.8890
;PRINTING_TIME: 129
;REMAINING_TIME: 1590
;LAYER:10
;Z:7.750
;HEIGHT:0.679
;HEIGHT-BELT:0.480
;PRINTING: conveyor belt printer calibration cube-45.stl
;PRINTING_ID: 0
G1 F240 E186.5890
G0 F600 Z7.750
G0 F3600 X110.775 Y0.300
;TYPE:WALL-OUTER
;WIDTH:0.600
G1 F1500 E186.8890
G1 F600 X140.178 Y0.300 E190.4096
G1 X140.178 Y5.418 E191.0224
G1 X110.775 Y5.418 E194.5431
G1 X110.775 Y0.500 E195.1319
G0 F600 X110.775 Y0.300
G0 F3600 X111.375 Y0.900
;TYPE:WALL-INNER
;WIDTH:0.600
G1 F1500 X139.578 Y0.900 E198.5088
G1 X139.578 Y4.818 E198.9780
G1 X111.375 Y4.818 E202.3549
G1 X111.375 Y1.100 E202.8001
G0 F1500 X111.375 Y0.900
G0 F3600 X111.975 Y1.500
G1 F1500 X138.978 Y1.500 E206.0333
G1 X138.978 Y4.218 E206.3588
G1 X111.975 Y4.218 E209.5920
G1 X111.975 Y1.700 E209.8935
G0 F1500 X111.975 Y1.500
G0 F3600 X112.575 Y2.100
G1 F1500 X138.378 Y2.100 E212.9831
G1 X138.378 Y3.618 E213.1648
G1 X112.575 Y3.618 E216.2544
G1 X112.575 Y2.300 E216.4122
G0 F1500 X112.575 Y2.100
G0 F3600 X115.373 Y2.670
;TYPE:FILL
;WIDTH:0.600
G1 F1800 X115.582 Y2.731 E216.4383
G1 X115.827 Y2.758 E216.4678
G1 X116.072 Y2.761 E216.4971
G1 X116.563 Y2.692 E216.5565
G1 X116.635 Y2.670 E216.5655
G1 X123.227 Y2.670 E217.3548
G1 X123.436 Y2.731 E217.3809
G1 X123.681 Y2.758 E217.4104
G1 X123.926 Y2.761 E217.4397
G1 X124.417 Y2.692 E217.4991
G1 X124.489 Y2.670 E217.5081
G1 X131.081 Y2.670 E218.2974
G1 X131.290 Y2.731 E218.3235
G1 X131.535 Y2.758 E218.3530
G1 X131.780 Y2.761 E218.3823
G1 X132.148 Y2.709 E218.4268
G0 F1800 X132.271 Y2.692
G0 F1800 X132.343 Y2.670
;PRINTING_TIME: 144
;REMAINING_TIME: 1574
;LAYER:11
;Z:8.429
;HEIGHT:0.679
;HEIGHT-BELT:0.480
;PRINTING: conveyor belt printer calibration cube-45.stl
;PRINTING_ID: 0
G1 F240 E218.1268
G0 F600 Z8.429
G0 F3600 X140.178 Y0.300
;TYPE:WALL-OUTER
;WIDTH:0.600
G1 F1500 E218.4268
G1 F600 X140.178 Y5.898 E219.0971
G1 X110.775 Y5.898 E222.6177
G1 X110.775 Y1.059 E223.1971
G1 X99.822 Y1.058 E224.5086
G1 X99.822 Y0.300 E224.5994
G1 X139.978 Y0.300 E229.4075
G0 F600 X140.178 Y0.300
G0 F3600 X139.578 Y0.900
;TYPE:WALL-INNER
;WIDTH:0.600
G1 F1500 X139.578 Y5.298 E229.9341
G1 X111.375 Y5.298 E233.3110
G1 X111.375 Y0.900 E233.8376
G1 X139.378 Y0.900 E237.1906
G0 F1500 X139.578 Y0.900
G0 F3600 X138.978 Y1.500
G1 F1500 X138.978 Y4.698 E237.5735
G1 X111.975 Y4.698 E240.8068
G1 X111.975 Y1.500 E241.1897
G1 X138.778 Y1.500 E244.3990
G0 F1500 X138.978 Y1.500
G0 F3600 X138.378 Y2.100
G1 F1500 X138.378 Y4.098 E244.6382
G1 X112.575 Y4.098 E247.7278
G1 X112.575 Y2.100 E247.9670
G1 X138.178 Y2.100 E251.0326
G0 F1500 X138.378 Y2.100
G0 F3600 X132.141 Y2.670
;TYPE:FILL
;WIDTH:0.600
G1 F1800 X131.780 Y2.822 E251.0795
G1 X131.290 Y2.930 E251.1396
G1 X130.799 Y2.938 E251.1984
G1 X130.553 Y2.890 E251.2284
G1 X130.308 Y2.791 E251.2601
G1 X130.126 Y2.670 E251.2862
G1 X124.287 Y2.670 E251.9854
G1 X123.926 Y2.822 E252.0323
G1 X123.436 Y2.930 E252.0924
G1 X122.945 Y2.938 E252.1512
G1 X122.699 Y2.890 E252.1812
G1 X122.454 Y2.791 E252.2128
G1 X122.272 Y2.670 E252.2390
G1 X116.433 Y2.670 E252.9381
G1 X116.072 Y2.822 E252.9850
G1 X115.582 Y2.930 E253.0451
G1 X115.091 Y2.938 E253.1039
G1 X114.845 Y2.890 E253.1339
G1 X114.600 Y2.791 E253.1655
G1 X114.584 Y2.781 E253.1678
